img/admin-bar-hide.svg

<svg fill="none" height="36" viewBox="0 0 36 36" width="36" xmlns="http://www.w3.org/2000/svg"><rect fill="#1c8aa9" height="36" rx="8" width="36"/><path d="m17.8377 15.1471 3.0259 2.9937v-.1516c0-.7538-.3017-1.4767-.8387-2.0097s-1.2654-.8324-2.0249-.8324zm-4.1045.7579 1.4795 1.4684c-.0477.199-.0763.3979-.0763.6158 0 .7538.3017 1.4767.8387 2.0097s1.2654.8324 2.0249.8324c.21 0 .42-.0284.6205-.0758l1.4795 1.4684c-.6395.3127-1.3459.5021-2.1.5021-1.2658 0-2.4798-.499-3.3748-1.3873-.8951-.8884-1.3979-2.0932-1.3979-3.3495 0-.7484.1909-1.4495.5059-2.0842zm-5.27865-5.239 2.17635 2.16.4296.4264c-1.57505 1.2315-2.81595 2.8421-3.5605 4.7368 1.65136 4.159 5.7273 7.1053 10.5 7.1053 1.4795 0 2.8923-.2842 4.1809-.7958l.4105.3979 2.7872 2.7663 1.2123-1.2032-16.92408-16.79681m8.33318 3.78951c1.2658 0 2.4798.499 3.3748 1.3874.8951.8883 1.3979 2.0931 1.3979 3.3494 0 .6063-.1241 1.1937-.3436 1.7242l2.7968 2.7758c1.4318-1.1842 2.5773-2.7379 3.2741-4.5-1.6514-4.1589-5.7273-7.1053-10.5-7.1053-1.3364 0-2.6155.2369-3.8182.6632l2.0714 2.0368c.5441-.2084 1.1263-.3315 1.7468-.3315z" fill="#fff"/></svg>

<svg width="36" height="36" viewBox="0 0 36 36" fill="none" xmlns="http://www.w3.org/2000/svg">
<rect width="36" height="36" rx="8" fill="#1C8AA9"/>
<path d="M17.8377 15.1471L20.8636 18.1408V17.9892C20.8636 17.2354 20.5619 16.5125 20.0249 15.9795C19.4879 15.4465 18.7595 15.1471 18 15.1471H17.8377ZM13.7332 15.905L15.2127 17.3734C15.165 17.5724 15.1364 17.7713 15.1364 17.9892C15.1364 18.743 15.4381 19.4659 15.9751 19.9989C16.5121 20.5319 17.2405 20.8313 18 20.8313C18.21 20.8313 18.42 20.8029 18.6205 20.7555L20.1 22.2239C19.4605 22.5366 18.7541 22.726 18 22.726C16.7342 22.726 15.5202 22.227 14.6252 21.3387C13.7301 20.4503 13.2273 19.2455 13.2273 17.9892C13.2273 17.2408 13.4182 16.5397 13.7332 15.905ZM8.45455 10.666L10.6309 12.826L11.0605 13.2524C9.48545 14.4839 8.24455 16.0945 7.5 17.9892C9.15136 22.1482 13.2273 25.0945 18 25.0945C19.4795 25.0945 20.8923 24.8103 22.1809 24.2987L22.5914 24.6966L25.3786 27.4629L26.5909 26.2597L9.66682 9.46289M18 13.2524C19.2658 13.2524 20.4798 13.7514 21.3748 14.6398C22.2699 15.5281 22.7727 16.7329 22.7727 17.9892C22.7727 18.5955 22.6486 19.1829 22.4291 19.7134L25.2259 22.4892C26.6577 21.305 27.8032 19.7513 28.5 17.9892C26.8486 13.8303 22.7727 10.8839 18 10.8839C16.6636 10.8839 15.3845 11.1208 14.1818 11.5471L16.2532 13.5839C16.7973 13.3755 17.3795 13.2524 18 13.2524Z" fill="white"/>
</svg>
